X: 420
T: the Ashtree Grove   #2
N: Irish title: coillte oinseoga
R: waltz, air
%S: s:4 b:11(4+7)
B: O'Neill's 1850 #420
O: J.O'Neill
Z: henrik.norbeck@mailbox.swipnet.se
N: Compacted via repeats and multiple endings [JC]
N: Compacted by using labels and play order [JC]
P: Play AB1 B2A
Q: "Slow"
M: 3/4
L: 1/8
K: D
DE "^A"[| F2 D2 EF | G2 A2 AG | E2 D2 D2 | "^fine"D4 "^B"[| (3ABc | d2 d2 ed |
| =c2 [1 B2 AG | E2 G2 B2 | A4 :|[2 BA GE | G2 A2 B2 | A4 "^->A"AG |]
